X: 114
T: Now I'm Sixty-Four
M:3/4
R:waltz
L:1/8
Z:added by Alf warnock alf0@rogers.com - www.alfwarnock.info/alfs
K:D
A|"D"A4 F2| "Dmaj7"A4 B2| "D6"F4 E2| "D"D4 DE|F4 F2| "Em7"E4 B,2| "D"A,6-|A,4 D2|
"D"D4 A,2| D4 E2| "F#m"FA-A4|"G"B4 BB|"D"A4 F2| "Em7"E4 D2| "A7"E6-|E4 A2||
"D"A4 F2| "Dmaj7"A4 B2| "D6"F4 E2| "D"D4 DE|F4 F2| "G"E2 D2 B,2| "D"A,6-|A,4 E2|
"D"D4 A,2| "Dmaj7"D4 E2| "F#m7"FA-A4|"G"B4 B2| "D"A2 F2 D2| "A7"F4 E2| "D"D6-|D4 A2||
P:Chorus
"D"A4 F2| "Dmaj7"A4 B2| "D6"F4 E2| "D"D4 DE|F4 F2| "G"E2 D2 B,2| "D"A,6-|A,4 D2|
"D"D4 A,2| "Dmaj7"D4 E2| "F#m"FA-A4|"G"B4 B2| "D"A2 F2 D2| "A7"F4 E2| "D"D6-|D6|]

